images/set-03-01.svg

<?xml version="1.0" encoding="UTF-8" standalone="no"?>
<svg width="66px" height="66px" viewBox="0 0 66 66" version="1.1" xmlns="http://www.w3.org/2000/svg" xmlns:xlink="http://www.w3.org/1999/xlink" xmlns:sketch="http://www.bohemiancoding.com/sketch/ns">
    <!-- Generator: Sketch 3.3.3 (12081) - http://www.bohemiancoding.com/sketch -->
    <title>set-03-01</title>
    <desc>Created with Sketch.</desc>
    <defs>
        <linearGradient x1="49.08522%" y1="50%" x2="49.3895484%" y2="49.2577567%" id="linearGradient-1">
            <stop stop-color="#E74C3C" offset="0%"></stop>
            <stop stop-color="#A82A1D" offset="100%"></stop>
        </linearGradient>
    </defs>
    <g id="Page-1" stroke="none" stroke-width="1" fill="none" fill-rule="evenodd" sketch:type="MSPage">
        <g id="set-03-01" sketch:type="MSArtboardGroup">
            <path d="M43.744186,23.1515152 L21.4883721,23.1515152 C21.027907,23.1515152 20.7209302,22.8484848 20.7209302,22.3939394 C20.7209302,21.9393939 21.027907,21.6363636 21.4883721,21.6363636 L43.744186,21.6363636 C44.2046512,21.6363636 44.5116279,21.9393939 44.5116279,22.3939394 C44.5116279,22.8484848 44.2046512,23.1515152 43.744186,23.1515152 Z M39.1395349,26.1818182 L25.3255814,26.1818182 C24.8651163,26.1818182 24.5581395,25.8787879 24.5581395,25.4242424 C24.5581395,24.969697 24.8651163,24.6666667 25.3255814,24.6666667 L39.1395349,24.6666667 C39.6,24.6666667 39.9069767,24.969697 39.9069767,25.4242424 C39.9069767,25.8787879 39.6,26.1818182 39.1395349,26.1818182 Z" id="Shape" fill="#676767" sketch:type="MSShapeGroup"></path>
            <path d="M28.3953488,35.2727273 L18.4186047,35.2727273 C17.9581395,35.2727273 17.6511628,34.969697 17.6511628,34.5151515 C17.6511628,34.0606061 17.9581395,33.7575758 18.4186047,33.7575758 L28.3953488,33.7575758 C28.855814,33.7575758 29.1627907,34.0606061 29.1627907,34.5151515 C29.1627907,34.969697 28.855814,35.2727273 28.3953488,35.2727273 Z M24.5581395,37.5454545 L18.4186047,37.5454545 C17.9581395,37.5454545 17.6511628,37.2424242 17.6511628,36.7878788 C17.6511628,36.3333333 17.9581395,36.030303 18.4186047,36.030303 L24.5581395,36.030303 C25.0186047,36.030303 25.3255814,36.3333333 25.3255814,36.7878788 C25.3255814,37.2424242 25.0186047,37.5454545 24.5581395,37.5454545 Z M55.255814,35.2727273 L45.2790698,35.2727273 C44.8186047,35.2727273 44.5116279,34.969697 44.5116279,34.5151515 C44.5116279,34.0606061 44.8186047,33.7575758 45.2790698,33.7575758 L55.255814,33.7575758 C55.7162791,33.7575758 56.0232558,34.0606061 56.0232558,34.5151515 C56.0232558,34.969697 55.7162791,35.2727273 55.255814,35.2727273 Z M50.6511628,37.5454545 L45.2790698,37.5454545 C44.8186047,37.5454545 44.5116279,37.2424242 44.5116279,36.7878788 C44.5116279,36.3333333 44.8186047,36.030303 45.2790698,36.030303 L50.6511628,36.030303 C51.1116279,36.030303 51.4186047,36.3333333 51.4186047,36.7878788 C51.4186047,37.2424242 51.1116279,37.5454545 50.6511628,37.5454545 Z M28.3953488,45.1212121 L18.4186047,45.1212121 C17.9581395,45.1212121 17.6511628,44.8181818 17.6511628,44.3636364 C17.6511628,43.9090909 17.9581395,43.6060606 18.4186047,43.6060606 L28.3953488,43.6060606 C28.855814,43.6060606 29.1627907,43.9090909 29.1627907,44.3636364 C29.1627907,44.8181818 28.855814,45.1212121 28.3953488,45.1212121 Z M24.5581395,47.3939394 L18.4186047,47.3939394 C17.9581395,47.3939394 17.6511628,47.0909091 17.6511628,46.6363636 C17.6511628,46.1818182 17.9581395,45.8787879 18.4186047,45.8787879 L24.5581395,45.8787879 C25.0186047,45.8787879 25.3255814,46.1818182 25.3255814,46.6363636 C25.3255814,47.0909091 25.0186047,47.3939394 24.5581395,47.3939394 Z M55.255814,45.1212121 L45.2790698,45.1212121 C44.8186047,45.1212121 44.5116279,44.8181818 44.5116279,44.3636364 C44.5116279,43.9090909 44.8186047,43.6060606 45.2790698,43.6060606 L55.255814,43.6060606 C55.7162791,43.6060606 56.0232558,43.9090909 56.0232558,44.3636364 C56.0232558,44.8181818 55.7162791,45.1212121 55.255814,45.1212121 Z M50.6511628,47.3939394 L45.2790698,47.3939394 C44.8186047,47.3939394 44.5116279,47.0909091 44.5116279,46.6363636 C44.5116279,46.1818182 44.8186047,45.8787879 45.2790698,45.8787879 L50.6511628,45.8787879 C51.1116279,45.8787879 51.4186047,46.1818182 51.4186047,46.6363636 C51.4186047,47.0909091 51.1116279,47.3939394 50.6511628,47.3939394 Z" id="Shape" fill="#909090" sketch:type="MSShapeGroup"></path>
            <path d="M63.6976744,57.6212121 L2.30232558,57.6212121 C0.997674419,57.6212121 0,56.6363636 0,55.3484848 L0,10.6515152 C0,9.36363636 0.997674419,8.37878788 2.30232558,8.37878788 L63.6976744,8.37878788 C65.0023256,8.37878788 66,9.36363636 66,10.6515152 L66,55.3484848 C66,56.6363636 65.0023256,57.6212121 63.6976744,57.6212121 L63.6976744,57.6212121 Z M1.53488372,14.0606061 L1.53488372,10.6515152 C1.53488372,10.1969697 1.84186047,9.89393939 2.30232558,9.89393939 L63.6976744,9.89393939 C64.1581395,9.89393939 64.4651163,10.1969697 64.4651163,10.6515152 L64.4651163,14.0606061 L1.53488372,14.0606061 L1.53488372,14.0606061 Z M1.53488372,15.5757576 L1.53488372,55.3484848 C1.53488372,55.8030303 1.84186047,56.1060606 2.30232558,56.1060606 L63.6976744,56.1060606 C64.1581395,56.1060606 64.4651163,55.8030303 64.4651163,55.3484848 L64.4651163,15.5757576 L1.53488372,15.5757576 L1.53488372,15.5757576 Z M4.14418605,13.2272727 C4.69518641,13.2272727 5.14186047,12.786341 5.14186047,12.2424242 C5.14186047,11.6985074 4.69518641,11.2575758 4.14418605,11.2575758 C3.59318568,11.2575758 3.14651163,11.6985074 3.14651163,12.2424242 C3.14651163,12.786341 3.59318568,13.2272727 4.14418605,13.2272727 Z M7.82790698,13.2272727 C8.37890734,13.2272727 8.8255814,12.786341 8.8255814,12.2424242 C8.8255814,11.6985074 8.37890734,11.2575758 7.82790698,11.2575758 C7.27690661,11.2575758 6.83023256,11.6985074 6.83023256,12.2424242 C6.83023256,12.786341 7.27690661,13.2272727 7.82790698,13.2272727 Z M11.4348837,13.2272727 C11.9858841,13.2272727 12.4325581,12.786341 12.4325581,12.2424242 C12.4325581,11.6985074 11.9858841,11.2575758 11.4348837,11.2575758 C10.8838834,11.2575758 10.4372093,11.6985074 10.4372093,12.2424242 C10.4372093,12.786341 10.8838834,13.2272727 11.4348837,13.2272727 Z" id="Shape" fill="url(#linearGradient-1)" sketch:type="MSShapeGroup"></path>
            <path d="M12.9697674,39.2121212 C10.9744186,39.2121212 9.3627907,37.6212121 9.3627907,35.6515152 C9.3627907,33.6818182 10.9744186,32.0909091 12.9697674,32.0909091 C14.9651163,32.0909091 16.5767442,33.6818182 16.5767442,35.6515152 C16.5767442,37.6212121 14.9651163,39.2121212 12.9697674,39.2121212 L12.9697674,39.2121212 Z M12.9697674,33.6060606 C11.8186047,33.6060606 10.8976744,34.5151515 10.8976744,35.6515152 C10.8976744,36.7878788 11.8186047,37.6969697 12.9697674,37.6969697 C14.1209302,37.6969697 15.0418605,36.7878788 15.0418605,35.6515152 C15.0418605,34.5151515 14.1209302,33.6060606 12.9697674,33.6060606 L12.9697674,33.6060606 Z" id="Shape" fill="#CD2122" sketch:type="MSShapeGroup"></path>
            <path d="M39.6,39.2121212 C37.6046512,39.2121212 35.9930233,37.6212121 35.9930233,35.6515152 C35.9930233,33.6818182 37.6046512,32.0909091 39.6,32.0909091 C41.5953488,32.0909091 43.2069767,33.6818182 43.2069767,35.6515152 C43.1302326,37.6212121 41.5953488,39.2121212 39.6,39.2121212 L39.6,39.2121212 Z M39.6,33.6060606 C38.4488372,33.6060606 37.527907,34.5151515 37.527907,35.6515152 C37.527907,36.7878788 38.4488372,37.6969697 39.6,37.6969697 C40.7511628,37.6969697 41.672093,36.7878788 41.672093,35.6515152 C41.672093,34.5151515 40.6744186,33.6060606 39.6,33.6060606 L39.6,33.6060606 Z" id="Shape" fill="#CD2122" sketch:type="MSShapeGroup"></path>
            <path d="M12.9697674,49.1363636 C10.9744186,49.1363636 9.3627907,47.5454545 9.3627907,45.5757576 C9.3627907,43.6060606 10.9744186,42.0151515 12.9697674,42.0151515 C14.9651163,42.0151515 16.5767442,43.6060606 16.5767442,45.5757576 C16.5767442,47.5454545 14.9651163,49.1363636 12.9697674,49.1363636 L12.9697674,49.1363636 Z M12.9697674,43.530303 C11.8186047,43.530303 10.8976744,44.4393939 10.8976744,45.5757576 C10.8976744,46.7121212 11.8186047,47.6212121 12.9697674,47.6212121 C14.1209302,47.6212121 15.0418605,46.7121212 15.0418605,45.5757576 C15.0418605,44.4393939 14.1209302,43.530303 12.9697674,43.530303 L12.9697674,43.530303 Z" id="Shape" fill="#CD2122" sketch:type="MSShapeGroup"></path>
            <path d="M39.6,49.1363636 C37.6046512,49.1363636 35.9930233,47.5454545 35.9930233,45.5757576 C35.9930233,43.6060606 37.6046512,42.0151515 39.6,42.0151515 C41.5953488,42.0151515 43.2069767,43.6060606 43.2069767,45.5757576 C43.2069767,47.5454545 41.5953488,49.1363636 39.6,49.1363636 L39.6,49.1363636 Z M39.6,43.530303 C38.4488372,43.530303 37.527907,44.4393939 37.527907,45.5757576 C37.527907,46.7121212 38.4488372,47.6212121 39.6,47.6212121 C40.7511628,47.6212121 41.672093,46.7121212 41.672093,45.5757576 C41.672093,44.4393939 40.6744186,43.530303 39.6,43.530303 L39.6,43.530303 Z" id="Shape" fill="#CD2122" sketch:type="MSShapeGroup"></path>
        </g>
    </g>
</svg>

<svg width="66" height="66" xmlns="http://www.w3.org/2000/svg"><defs><linearGradient x1="49.085%" y1="50%" x2="49.39%" y2="49.258%" id="linearGradient-1"><stop stop-color="#E74C3C" offset="0%"/><stop stop-color="#A82A1D" offset="100%"/></linearGradient></defs><g id="Page-1" stroke="none" stroke-width="1" fill="none" fill-rule="evenodd"><g id="set-03-01"><path d="M43.744 23.152H21.488c-.46 0-.767-.304-.767-.758 0-.455.307-.758.767-.758h22.256c.46 0 .768.303.768.758 0 .454-.307.758-.768.758zm-4.604 3.03H25.326c-.46 0-.768-.303-.768-.758 0-.454.307-.757.768-.757H39.14c.46 0 .767.303.767.757 0 .455-.307.758-.767.758z" id="Shape" fill="#676767"/><path d="M28.395 35.273H18.42c-.46 0-.768-.303-.768-.758 0-.454.307-.757.768-.757h9.976c.46 0 .768.303.768.757 0 .455-.307.758-.768.758zm-3.837 2.272h-6.14c-.46 0-.767-.303-.767-.757 0-.455.307-.758.768-.758h6.14c.46 0 .767.303.767.758 0 .454-.307.757-.768.757zm30.698-2.272h-9.977c-.46 0-.767-.303-.767-.758 0-.454.307-.757.767-.757h9.977c.46 0 .767.303.767.757 0 .455-.307.758-.767.758zm-4.605 2.272H45.28c-.46 0-.767-.303-.767-.757 0-.455.307-.758.767-.758h5.372c.46 0 .768.303.768.758 0 .454-.307.757-.768.757zm-22.256 7.576H18.42c-.46 0-.768-.303-.768-.757 0-.455.307-.758.768-.758h9.976c.46 0 .768.303.768.758 0 .454-.307.757-.768.757zm-3.837 2.273h-6.14c-.46 0-.767-.303-.767-.758 0-.454.307-.757.768-.757h6.14c.46 0 .767.303.767.757 0 .455-.307.758-.768.758zm30.698-2.273h-9.977c-.46 0-.767-.303-.767-.757 0-.455.307-.758.767-.758h9.977c.46 0 .767.303.767.758 0 .454-.307.757-.767.757zm-4.605 2.273H45.28c-.46 0-.767-.303-.767-.758 0-.454.307-.757.767-.757h5.372c.46 0 .768.303.768.757 0 .455-.307.758-.768.758z" id="Shape" fill="#909090"/><path d="M63.698 57.621H2.302C.998 57.621 0 56.636 0 55.348V10.652c0-1.288.998-2.273 2.302-2.273h61.396c1.304 0 2.302.985 2.302 2.273v44.696c0 1.288-.998 2.273-2.302 2.273zM1.535 14.061v-3.41c0-.454.307-.757.767-.757h61.396c.46 0 .767.303.767.758v3.409H1.535zm0 1.515v39.772c0 .455.307.758.767.758h61.396c.46 0 .767-.303.767-.758V15.576H1.535zm2.61-2.349a.99.99 0 00.997-.985.991.991 0 00-.998-.984.991.991 0 00-.997.984.99.99 0 00.997.985zm3.683 0c.55 0 .998-.44.998-.985a.991.991 0 00-.998-.984.991.991 0 00-.998.984c0 .544.447.985.998.985zm3.607 0c.55 0 .998-.44.998-.985a.991.991 0 00-.998-.984.991.991 0 00-.998.984c0 .544.447.985.998.985z" id="Shape" fill="url(#linearGradient-1)"/><path d="M12.97 39.212c-1.996 0-3.607-1.59-3.607-3.56s1.611-3.561 3.607-3.561c1.995 0 3.607 1.59 3.607 3.56s-1.612 3.561-3.607 3.561zm0-5.606a2.05 2.05 0 00-2.072 2.046 2.05 2.05 0 002.072 2.045 2.05 2.05 0 002.072-2.045 2.05 2.05 0 00-2.072-2.046zm26.63 5.606c-1.995 0-3.607-1.59-3.607-3.56s1.612-3.561 3.607-3.561 3.607 1.59 3.607 3.56c-.077 1.97-1.612 3.561-3.607 3.561zm0-5.606a2.05 2.05 0 00-2.072 2.046 2.05 2.05 0 002.072 2.045 2.05 2.05 0 002.072-2.045c0-1.137-.998-2.046-2.072-2.046zm-26.63 15.53c-1.996 0-3.607-1.59-3.607-3.56s1.611-3.56 3.607-3.56c1.995 0 3.607 1.59 3.607 3.56s-1.612 3.56-3.607 3.56zm0-5.606a2.05 2.05 0 00-2.072 2.046 2.05 2.05 0 002.072 2.045 2.05 2.05 0 002.072-2.045 2.05 2.05 0 00-2.072-2.046zm26.63 5.606c-1.995 0-3.607-1.59-3.607-3.56s1.612-3.56 3.607-3.56 3.607 1.59 3.607 3.56-1.612 3.56-3.607 3.56zm0-5.606a2.05 2.05 0 00-2.072 2.046A2.05 2.05 0 0039.6 47.62a2.05 2.05 0 002.072-2.045c0-1.137-.998-2.046-2.072-2.046z" id="Shape" fill="#CD2122"/></g></g></svg>
